austria/municipalities/70724.svg

<?xml version="1.0" encoding="UTF-8"?>
<!DOCTYPE svg PUBLIC "-//W3C//DTD SVG 1.1//EN" "http://www.w3.org/Graphics/SVG/1.1/DTD/svg11.dtd">
<svg xmlns="http://www.w3.org/2000/svg" version="1.1" width="166px" height="192px" style="shape-rendering:geometricPrecision; text-rendering:geometricPrecision; image-rendering:optimizeQuality; fill-rule:evenodd; clip-rule:evenodd" xmlns:xlink="http://www.w3.org/1999/xlink">
<g><path style="opacity:1" fill="#0b0c0a" d="M -0.5,-0.5 C 54.8333,-0.5 110.167,-0.5 165.5,-0.5C 165.5,39.1667 165.5,78.8333 165.5,118.5C 157.5,159.167 133.167,183.5 92.5,191.5C 85.5,191.5 78.5,191.5 71.5,191.5C 30.4674,182.802 6.46741,157.802 -0.5,116.5C -0.5,77.5 -0.5,38.5 -0.5,-0.5 Z"/></g>
<g><path style="opacity:1" fill="#3c3a38" d="M 120.5,4.5 C 119.833,5.83333 118.833,6.83333 117.5,7.5C 117.511,5.98261 118.177,4.81595 119.5,4C 94.8333,3.33333 70.1667,3.33333 45.5,4C 48.1177,6.1057 50.1177,8.6057 51.5,11.5C 48.7673,8.76059 45.7673,6.42725 42.5,4.5C 42.9175,3.77842 43.5842,3.27842 44.5,3C 57.1667,2.83333 69.8333,2.66667 82.5,2.5C 95.5181,2.50085 108.185,3.16752 120.5,4.5 Z"/></g>
<g><path style="opacity:1" fill="#fdfdfd" d="M 24.5,22.5 C 23.8333,22.5 23.5,22.8333 23.5,23.5C 16.8685,29.6306 10.3685,35.964 4,42.5C 3.50011,29.5043 3.33344,16.5043 3.5,3.5C 16.1711,3.33345 28.8377,3.50012 41.5,4C 35.2369,9.757 29.5702,15.9237 24.5,22.5 Z"/></g>
<g><path style="opacity:1" fill="#fdfdfd" d="M 117.5,7.5 C 116.833,7.5 116.5,7.83333 116.5,8.5C 111.77,12.2269 107.77,16.5603 104.5,21.5C 99.7703,25.2269 95.7703,29.5603 92.5,34.5C 89.1866,37.4778 85.8533,40.4778 82.5,43.5C 80.1472,41.4773 77.8138,39.4773 75.5,37.5C 72.2297,32.5603 68.2297,28.2269 63.5,24.5C 60.2297,19.5603 56.2297,15.2269 51.5,11.5C 50.1177,8.6057 48.1177,6.1057 45.5,4C 70.1667,3.33333 94.8333,3.33333 119.5,4C 118.177,4.81595 117.511,5.98261 117.5,7.5 Z"/></g>
<g><path style="opacity:1" fill="#fdfdfd" d="M 123.5,4.5 C 135.989,3.50465 148.656,3.17132 161.5,3.5C 161.667,16.5043 161.5,29.5043 161,42.5C 155.965,37.2969 150.798,32.2969 145.5,27.5C 138.89,19.2213 131.556,11.5546 123.5,4.5 Z"/></g>
<g><path style="opacity:1" fill="#185b2a" d="M 123.5,4.5 C 130.11,12.7787 137.444,20.4454 145.5,27.5C 150.069,33.5755 155.236,39.2422 161,44.5C 161.667,69.1667 161.667,93.8333 161,118.5C 155.525,150.969 137.358,172.802 106.5,184C 63.1267,194.059 30.96,179.559 10,140.5C 7.05558,132.722 5.05558,124.722 4,116.5C 3.33333,92.5 3.33333,68.5 4,44.5C 11.0947,37.9107 17.5947,30.9107 23.5,23.5C 23.5,22.8333 23.8333,22.5 24.5,22.5C 30.8333,16.8333 36.8333,10.8333 42.5,4.5C 45.7673,6.42725 48.7673,8.76059 51.5,11.5C 54.7703,16.4397 58.7703,20.7731 63.5,24.5C 66.7703,29.4397 70.7703,33.7731 75.5,37.5C 77.0713,40.7441 79.4046,43.4108 82.5,45.5C 86.5881,42.417 89.9214,38.7504 92.5,34.5C 97.2297,30.7731 101.23,26.4397 104.5,21.5C 109.23,17.7731 113.23,13.4397 116.5,8.5C 116.5,7.83333 116.833,7.5 117.5,7.5C 118.833,6.83333 119.833,5.83333 120.5,4.5C 121.5,3.16667 122.5,3.16667 123.5,4.5 Z"/></g>
<g><path style="opacity:1" fill="#20241f" d="M 123.5,4.5 C 131.556,11.5546 138.89,19.2213 145.5,27.5C 137.444,20.4454 130.11,12.7787 123.5,4.5 Z"/></g>
<g><path style="opacity:1" fill="#1e221d" d="M 51.5,11.5 C 56.2297,15.2269 60.2297,19.5603 63.5,24.5C 58.7703,20.7731 54.7703,16.4397 51.5,11.5 Z"/></g>
<g><path style="opacity:1" fill="#1b201a" d="M 116.5,8.5 C 113.23,13.4397 109.23,17.7731 104.5,21.5C 107.77,16.5603 111.77,12.2269 116.5,8.5 Z"/></g>
<g><path style="opacity:1" fill="#1d221c" d="M 63.5,24.5 C 68.2297,28.2269 72.2297,32.5603 75.5,37.5C 70.7703,33.7731 66.7703,29.4397 63.5,24.5 Z"/></g>
<g><path style="opacity:1" fill="#1c211b" d="M 104.5,21.5 C 101.23,26.4397 97.2297,30.7731 92.5,34.5C 95.7703,29.5603 99.7703,25.2269 104.5,21.5 Z"/></g>
<g><path style="opacity:1" fill="#132114" d="M 92.5,34.5 C 89.9214,38.7504 86.5881,42.417 82.5,45.5C 79.4046,43.4108 77.0713,40.7441 75.5,37.5C 77.8138,39.4773 80.1472,41.4773 82.5,43.5C 85.8533,40.4778 89.1866,37.4778 92.5,34.5 Z"/></g>
<g><path style="opacity:1" fill="#171816" d="M 64.5,53.5 C 76.5046,53.3335 88.5046,53.5001 100.5,54C 101.308,54.3076 101.975,54.8076 102.5,55.5C 103.283,60.4473 103.783,65.4473 104,70.5C 119.71,88.5409 135.043,106.874 150,125.5C 151.004,131.854 148.504,136.354 142.5,139C 140.527,139.495 138.527,139.662 136.5,139.5C 140.409,153.912 135.075,160.246 120.5,158.5C 116.481,170.796 108.648,174.13 97,168.5C 91.6048,178.409 83.7715,180.909 73.5,176C 70.8941,174.062 69.0608,171.562 68,168.5C 60.8803,172.861 54.2136,172.194 48,166.5C 46.6591,163.978 45.8257,161.311 45.5,158.5C 30.2314,160.738 24.8981,154.571 29.5,140C 21.2425,140.076 16.2425,136.076 14.5,128C 15.1305,124.704 16.6305,121.87 19,119.5C 33.3333,102.833 47.6667,86.1667 62,69.5C 62.3333,64.8333 62.6667,60.1667 63,55.5C 63.7172,54.9558 64.2172,54.2891 64.5,53.5 Z"/></g>
<g><path style="opacity:1" fill="#fbfbfb" d="M 78.5,55.5 C 82.747,55.1778 86.747,56.0111 90.5,58C 93.6667,61.1667 96.8333,64.3333 100,67.5C 114.667,84.8333 129.333,102.167 144,119.5C 151.283,128.462 149.45,134.796 138.5,138.5C 137.446,138.32 136.446,137.987 135.5,137.5C 125.866,120.703 116.033,104.036 106,87.5C 105.333,88.5 105.333,89.5 106,90.5C 116.521,108.21 126.521,126.21 136,144.5C 136.013,154.975 130.846,158.975 120.5,156.5C 112.966,135.23 105.632,113.897 98.5,92.5C 102.011,107.555 106.511,122.555 112,137.5C 114.384,144.538 116.218,151.705 117.5,159C 115.151,168.842 109.151,171.842 99.5,168C 98.1068,166.829 97.2735,165.329 97,163.5C 95.1207,141.086 92.6207,118.753 89.5,96.5C 89.1667,97.5 88.8333,98.5 88.5,99.5C 90.9651,120.817 93.2984,142.151 95.5,163.5C 95.5,172.167 91.1667,176.5 82.5,176.5C 74.0988,176.599 69.7654,172.433 69.5,164C 72.3299,141.535 74.4965,119.035 76,96.5C 72.6859,118.652 70.0193,140.986 68,163.5C 67.6541,165.848 66.4875,167.681 64.5,169C 55.2295,171.385 49.5628,168.051 47.5,159C 53.6595,137.021 60.3262,115.187 67.5,93.5C 67.1667,93.1667 66.8333,92.8333 66.5,92.5C 59.1974,113.574 52.1974,134.741 45.5,156C 33.5386,159.374 28.3719,154.874 30,142.5C 38.4793,126.208 47.4793,110.208 57,94.5C 58.5899,92.3502 59.2566,90.0168 59,87.5C 49.3736,103.918 39.8736,120.418 30.5,137C 22.9792,139.067 18.3126,136.234 16.5,128.5C 16.577,126.701 17.077,125.034 18,123.5C 32.3333,106.5 46.6667,89.5 61,72.5C 66.0671,65.9313 71.9004,60.2646 78.5,55.5 Z"/></g>
<g><path style="opacity:1" fill="#0a0a0a" d="M 76.5,63.5 C 82.3681,65.2619 83.3681,68.2619 79.5,72.5C 81.5531,76.4121 83.7198,76.4121 86,72.5C 84.8755,68.3952 86.3755,65.3952 90.5,63.5C 92.8557,65.69 95.3557,67.69 98,69.5C 98.6667,73.5 98.6667,77.5 98,81.5C 95.6667,79.1667 93.3333,76.8333 91,74.5C 89.5,76 88,77.5 86.5,79C 88.7594,80.7146 90.9261,82.5479 93,84.5C 93.0217,87.4697 91.5217,88.6363 88.5,88C 86.9825,86.3149 85.3159,84.8149 83.5,83.5C 81.1831,85.316 79.0165,87.316 77,89.5C 75.8333,88.3333 74.6667,87.1667 73.5,86C 75.5,84 77.5,82 79.5,80C 78.3333,78.8333 77.1667,77.6667 76,76.5C 74.6667,77.8333 73.3333,79.1667 72,80.5C 70.3333,79.1667 68.6667,77.8333 67,76.5C 66.3333,75.5 66.3333,74.5 67,73.5C 70.3709,70.2975 73.5375,66.9641 76.5,63.5 Z"/></g>
<g><path style="opacity:1" fill="#fbfbfb" d="M 90.5,56.5 C 100.492,52.6545 103.992,55.9878 101,66.5C 98.2681,62.2658 94.7681,58.9325 90.5,56.5 Z"/></g>
<g><path style="opacity:1" fill="#f7f6f6" d="M 64.5,55.5 C 67.8499,55.335 71.1832,55.5017 74.5,56C 70.9032,59.3176 67.4032,62.8176 64,66.5C 63.2446,62.7446 63.4113,59.0779 64.5,55.5 Z"/></g>
<g><path style="opacity:1" fill="#fdfdfd" d="M -0.5,116.5 C 6.46741,157.802 30.4674,182.802 71.5,191.5C 47.5,191.5 23.5,191.5 -0.5,191.5C -0.5,166.5 -0.5,141.5 -0.5,116.5 Z"/></g>
<g><path style="opacity:1" fill="#fdfdfd" d="M 165.5,118.5 C 165.5,142.833 165.5,167.167 165.5,191.5C 141.167,191.5 116.833,191.5 92.5,191.5C 133.167,183.5 157.5,159.167 165.5,118.5 Z"/></g>
</svg>

<svg xmlns="http://www.w3.org/2000/svg" width="166" height="192" style="shape-rendering:geometricPrecision;text-rendering:geometricPrecision;image-rendering:optimizeQuality;fill-rule:evenodd;clip-rule:evenodd"><path style="opacity:1" fill="#0b0c0a" d="M-.5-.5h166v119c-8 40.667-32.333 65-73 73h-21c-41.033-8.698-65.033-33.698-72-75V-.5z"/><path style="opacity:1" fill="#3c3a38" d="M120.5 4.5a6.544 6.544 0 0 1-3 3c.011-1.517.677-2.684 2-3.5a1369.243 1369.243 0 0 0-74 0c2.618 2.106 4.618 4.606 6 7.5a44.887 44.887 0 0 0-9-7c.417-.722 1.084-1.222 2-1.5l38-.5c13.018 0 25.685.668 38 2z"/><path style="opacity:1" fill="#fdfdfd" d="M24.5 22.5c-.667 0-1 .333-1 1A521.47 521.47 0 0 0 4 42.5a760.934 760.934 0 0 1-.5-39c12.671-.167 25.338 0 38 .5-6.263 5.757-11.93 11.924-17 18.5zM117.5 7.5c-.667 0-1 .333-1 1-4.73 3.727-8.73 8.06-12 13-4.73 3.727-8.73 8.06-12 13a9560.58 9560.58 0 0 0-10 9 3117.118 3117.118 0 0 0-7-6c-3.27-4.94-7.27-9.273-12-13-3.27-4.94-7.27-9.273-12-13-1.382-2.894-3.382-5.394-6-7.5 24.667-.667 49.333-.667 74 0-1.323.816-1.989 1.983-2 3.5zM123.5 4.5a361.6 361.6 0 0 1 38-1c.167 13.004 0 26.004-.5 39a326.72 326.72 0 0 0-15.5-15 178.912 178.912 0 0 0-22-23z"/><path style="opacity:1" fill="#185b2a" d="M123.5 4.5a178.912 178.912 0 0 0 22 23c4.569 6.075 9.736 11.742 15.5 17 .667 24.667.667 49.333 0 74-5.475 32.469-23.642 54.302-54.5 65.5-43.373 10.059-75.54-4.441-96.5-43.5a105.511 105.511 0 0 1-6-24c-.667-24-.667-48 0-72a191.628 191.628 0 0 0 19.5-21c0-.667.333-1 1-1a229.302 229.302 0 0 0 18-18 44.887 44.887 0 0 1 9 7c3.27 4.94 7.27 9.273 12 13 3.27 4.94 7.27 9.273 12 13 1.571 3.244 3.905 5.91 7 8 4.088-3.083 7.421-6.75 10-11 4.73-3.727 8.73-8.06 12-13 4.73-3.727 8.73-8.06 12-13 0-.667.333-1 1-1a6.544 6.544 0 0 0 3-3c1-1.333 2-1.333 3 0z"/><path style="opacity:1" fill="#20241f" d="M123.5 4.5a178.912 178.912 0 0 1 22 23 178.912 178.912 0 0 1-22-23z"/><path style="opacity:1" fill="#1e221d" d="M51.5 11.5c4.73 3.727 8.73 8.06 12 13-4.73-3.727-8.73-8.06-12-13z"/><path style="opacity:1" fill="#1b201a" d="M116.5 8.5c-3.27 4.94-7.27 9.273-12 13 3.27-4.94 7.27-9.273 12-13z"/><path style="opacity:1" fill="#1d221c" d="M63.5 24.5c4.73 3.727 8.73 8.06 12 13-4.73-3.727-8.73-8.06-12-13z"/><path style="opacity:1" fill="#1c211b" d="M104.5 21.5c-3.27 4.94-7.27 9.273-12 13 3.27-4.94 7.27-9.273 12-13z"/><path style="opacity:1" fill="#132114" d="M92.5 34.5c-2.579 4.25-5.912 7.917-10 11-3.095-2.09-5.429-4.756-7-8 2.314 1.977 4.647 3.977 7 6a9560.58 9560.58 0 0 1 10-9z"/><path style="opacity:1" fill="#171816" d="M64.5 53.5c12.005-.166 24.005 0 36 .5a4.451 4.451 0 0 1 2 1.5 132.15 132.15 0 0 1 1.5 15 1798.392 1798.392 0 0 1 46 55c1.004 6.354-1.496 10.854-7.5 13.5a18.453 18.453 0 0 1-6 .5c3.909 14.412-1.425 20.746-16 19-4.019 12.296-11.852 15.63-23.5 10-5.395 9.909-13.228 12.409-23.5 7.5-2.606-1.938-4.44-4.438-5.5-7.5-7.12 4.361-13.786 3.694-20-2a22.39 22.39 0 0 1-2.5-8c-15.269 2.238-20.602-3.929-16-18.5-8.258.076-13.258-3.924-15-12 .63-3.296 2.13-6.13 4.5-8.5l43-50 1-14c.717-.544 1.217-1.21 1.5-2z"/><path style="opacity:1" fill="#fbfbfb" d="M78.5 55.5c4.247-.322 8.247.511 12 2.5l9.5 9.5 44 52c7.283 8.962 5.45 15.296-5.5 19a10.305 10.305 0 0 1-3-1 2358.854 2358.854 0 0 0-29.5-50c-.667 1-.667 2 0 3a1066.85 1066.85 0 0 1 30 54c.013 10.475-5.154 14.475-15.5 12a3622.484 3622.484 0 0 1-22-64c3.511 15.055 8.011 30.055 13.5 45a145.324 145.324 0 0 1 5.5 21.5c-2.349 9.842-8.349 12.842-18 9-1.393-1.171-2.227-2.671-2.5-4.5a1210.747 1210.747 0 0 0-7.5-67l-1 3a5205.692 5205.692 0 0 1 7 64c0 8.667-4.333 13-13 13-8.401.099-12.735-4.067-13-12.5A1155.358 1155.358 0 0 0 76 96.5a1142.56 1142.56 0 0 0-8 67c-.346 2.348-1.513 4.181-3.5 5.5-9.27 2.385-14.937-.949-17-10a1481.606 1481.606 0 0 1 20-65.5l-1-1a2356.888 2356.888 0 0 0-21 63.5c-11.961 3.374-17.128-1.126-15.5-13.5a846.978 846.978 0 0 1 27-48c1.59-2.15 2.257-4.483 2-7A3614.066 3614.066 0 0 0 30.5 137c-7.52 2.067-12.187-.766-14-8.5a10.413 10.413 0 0 1 1.5-5l43-51c5.067-6.569 10.9-12.235 17.5-17z"/><path style="opacity:1" fill="#0a0a0a" d="M76.5 63.5c5.868 1.762 6.868 4.762 3 9 2.053 3.912 4.22 3.912 6.5 0-1.124-4.105.376-7.105 4.5-9a64.552 64.552 0 0 0 7.5 6c.667 4 .667 8 0 12l-7-7-4.5 4.5a80.31 80.31 0 0 1 6.5 5.5c.022 2.97-1.478 4.136-4.5 3.5a31.857 31.857 0 0 0-5-4.5 55.098 55.098 0 0 0-6.5 6L73.5 86l6-6-3.5-3.5-4 4-5-4c-.667-1-.667-2 0-3a133.24 133.24 0 0 0 9.5-10z"/><path style="opacity:1" fill="#fbfbfb" d="M90.5 56.5c9.992-3.846 13.492-.512 10.5 10-2.732-4.234-6.232-7.568-10.5-10z"/><path style="opacity:1" fill="#f7f6f6" d="M64.5 55.5c3.35-.165 6.683.002 10 .5A186.214 186.214 0 0 0 64 66.5c-.755-3.755-.589-7.422.5-11z"/><path style="opacity:1" fill="#fdfdfd" d="M-.5 116.5c6.967 41.302 30.967 66.302 72 75h-72v-75zM165.5 118.5v73h-73c40.667-8 65-32.333 73-73z"/></svg>
